packages/icons/raw/imported/MediaMiceAlternative.svg

<svg width="32" height="32" viewBox="0 0 32 32" fill="none" xmlns="http://www.w3.org/2000/svg">
<path d="M7.21283 20.5583L6.80132 20.2743H6.80132L7.21283 20.5583ZM19.7227 19.1721C19.945 19.0083 19.9924 18.6953 19.8286 18.473C19.6648 18.2507 19.3518 18.2032 19.1295 18.367L19.7227 19.1721ZM11.4385 24.6552L11.1419 24.2526L11.4385 24.6552ZM7.55869 24.3629L7.20514 24.7165H7.20514L7.55869 24.3629ZM15.4491 7.95088C15.2539 7.75562 14.9373 7.75562 14.742 7.95088C14.5468 8.14614 14.5468 8.46272 14.742 8.65798L15.4491 7.95088ZM23.0496 16.9656C23.2449 17.1608 23.5615 17.1608 23.7567 16.9656C23.952 16.7703 23.952 16.4537 23.7567 16.2585L23.0496 16.9656ZM12.5188 11.9899L6.80132 20.2743L7.62434 20.8423L13.3419 12.5579L12.5188 11.9899ZM19.1295 18.367L11.1419 24.2526L11.7351 25.0577L19.7227 19.1721L19.1295 18.367ZM6.80132 20.2743C5.84607 21.6584 6.01597 23.5273 7.20514 24.7165L7.91224 24.0094C7.06442 23.1615 6.9433 21.8291 7.62434 20.8423L6.80132 20.2743ZM7.20514 24.7165C8.42312 25.9344 10.3484 26.0795 11.7351 25.0577L11.1419 24.2526C10.1532 24.9811 8.78061 24.8777 7.91224 24.0094L7.20514 24.7165ZM24.7 12.6348C24.7 15.7469 22.1772 18.2696 19.0652 18.2696V19.2696C22.7295 19.2696 25.7 16.2991 25.7 12.6348H24.7ZM19.0652 18.2696C15.9531 18.2696 13.4303 15.7469 13.4303 12.6348H12.4303C12.4303 16.2991 15.4009 19.2696 19.0652 19.2696V18.2696ZM13.4303 12.6348C13.4303 9.5228 15.9531 7 19.0652 7V6C15.4009 6 12.4303 8.97051 12.4303 12.6348H13.4303ZM19.0652 7C22.1772 7 24.7 9.5228 24.7 12.6348H25.7C25.7 8.97051 22.7295 6 19.0652 6V7ZM14.742 8.65798L23.0496 16.9656L23.7567 16.2585L15.4491 7.95088L14.742 8.65798Z" fill="black"/>
</svg>

<svg width="32" height="32" fill="none" xmlns="http://www.w3.org/2000/svg"><path d="m7.213 20.558-.412-.284.412.284Zm12.51-1.386a.5.5 0 0 0-.593-.805l.593.805Zm-8.284 5.483-.297-.402.296.402Zm-3.88-.292-.354.354.354-.354Zm7.89-16.412a.5.5 0 0 0-.707.707l.707-.707Zm7.6 9.015a.5.5 0 0 0 .708-.707l-.707.707ZM12.52 11.99 6.8 20.274l.823.568 5.718-8.284-.823-.568Zm6.61 6.377-7.987 5.886.593.805 7.988-5.886-.593-.805ZM6.802 20.274a3.484 3.484 0 0 0 .404 4.442l.707-.707a2.484 2.484 0 0 1-.288-3.167l-.823-.568Zm.404 4.442a3.484 3.484 0 0 0 4.53.342l-.593-.805a2.484 2.484 0 0 1-3.23-.244l-.707.707ZM24.7 12.636a5.635 5.635 0 0 1-5.635 5.635v1a6.635 6.635 0 0 0 6.635-6.635h-1Zm-5.635 5.635a5.635 5.635 0 0 1-5.635-5.635h-1a6.635 6.635 0 0 0 6.635 6.635v-1Zm-5.635-5.635A5.635 5.635 0 0 1 19.065 7V6a6.635 6.635 0 0 0-6.635 6.635h1ZM19.065 7a5.635 5.635 0 0 1 5.635 5.635h1A6.635 6.635 0 0 0 19.065 6v1Zm-4.323 1.658 8.308 8.308.707-.707-8.308-8.308-.707.707Z" fill="#000"/></svg>
